X:7272
T:the Register
O:england
R:Jig
M:6/8
K:G
D | G2G GAB | c2c c2B | A2A ABc | d2d d2B | \
g2g gfe | d2d def | gdc BcA | G3 G2 :|
|:d | g2g gfe | d2d def | g2g gfe | d2d d2B | \
c2c edc | B2B dcB | ABc BcA | G3 G2 :|


